_includes/icons/color-test-tube.svg

<svg fill="#666" height="50" viewBox="0 0 48 48" width="50" xmlns="http://www.w3.org/2000/svg"><g fill="#90caf9"><path d="m29 21h-10l-11.792969 14.144531c-.050781.046875-.09375.101563-.140625.152344l-.238281.269531h.019531c-.523437.671875-.847656 1.511719-.847656 2.433594 0 2.210938 1.789063 4 4 4h28c2.210938 0 4-1.789062 4-4 0-.890625-.300781-1.703125-.792969-2.367187h.015625l-.183593-.203125c-.089844-.109375-.179688-.21875-.28125-.316407z"/><path d="m19 9h10v13.417969h-10z"/><path d="m31 8c0 1.105469-.894531 2-2 2h-10c-1.105469 0-2-.894531-2-2s.894531-2 2-2h10c1.105469 0 2 .894531 2 2z"/></g><path d="m39.601563 36.820313-.015625-.015625-.03125-.039063-.023438-.023437-.015625-.019532-.050781-.058593c-.03125-.035157-.058594-.074219-.09375-.109375l-.058594-.054688-.046875-.050781-6.59375-7.949219h-17.347656l-6.628906 7.980469-.050782.050781c-.039062.042969-.066406.078125-.097656.113281l-.039062.042969-.078125.101563c-.195313.253906-.429688.667968-.429688 1.210937 0 1.101563.898438 2 2 2h28c1.101563 0 2-.898437 2-2 0-.527344-.21875-.933594-.398437-1.179687z" fill="#f50057"/><path d="m32 35c0 1.65625-1.34375 3-3 3s-3-1.34375-3-3 1.34375-3 3-3 3 1.34375 3 3z" fill="#f48fb1"/><path d="m24 32c0 1.105469-.894531 2-2 2s-2-.894531-2-2 .894531-2 2-2 2 .894531 2 2z" fill="#f8bbd0"/><g fill="#e3f2fd"><path d="m27 23c0 1.105469-.894531 2-2 2s-2-.894531-2-2 .894531-2 2-2 2 .894531 2 2z"/><path d="m25 16.5c0 .828125-.671875 1.5-1.5 1.5s-1.5-.671875-1.5-1.5.671875-1.5 1.5-1.5 1.5.671875 1.5 1.5z"/></g></svg>

<svg xmlns="http://www.w3.org/2000/svg" viewBox="0 0 48 48" width="50" height="50" fill="#666"><path d="M 29 21 L 19 21 L 7.207031 35.144531 C 7.15625 35.191406 7.113281 35.246094 7.066406 35.296875 L 6.828125 35.566406 L 6.847656 35.566406 C 6.324219 36.238281 6 37.078125 6 38 C 6 40.210938 7.789063 42 10 42 L 38 42 C 40.210938 42 42 40.210938 42 38 C 42 37.109375 41.699219 36.296875 41.207031 35.632813 L 41.222656 35.632813 L 41.039063 35.429688 C 40.949219 35.320313 40.859375 35.210938 40.757813 35.113281 Z" fill="#90caf9"/><path d="M 19 9 L 29 9 L 29 22.417969 L 19 22.417969 Z" fill="#90caf9"/><path d="M 31 8 C 31 9.105469 30.105469 10 29 10 L 19 10 C 17.894531 10 17 9.105469 17 8 C 17 6.894531 17.894531 6 19 6 L 29 6 C 30.105469 6 31 6.894531 31 8 Z" fill="#90caf9"/><path d="M 39.601563 36.820313 L 39.585938 36.804688 L 39.554688 36.765625 L 39.53125 36.742188 L 39.515625 36.722656 L 39.464844 36.664063 C 39.433594 36.628906 39.40625 36.589844 39.371094 36.554688 L 39.3125 36.5 L 39.265625 36.449219 L 32.671875 28.5 L 15.324219 28.5 L 8.695313 36.480469 L 8.644531 36.53125 C 8.605469 36.574219 8.578125 36.609375 8.546875 36.644531 L 8.507813 36.6875 L 8.429688 36.789063 C 8.234375 37.042969 8 37.457031 8 38 C 8 39.101563 8.898438 40 10 40 L 38 40 C 39.101563 40 40 39.101563 40 38 C 40 37.472656 39.78125 37.066406 39.601563 36.820313 Z" fill="#f50057"/><path d="M 32 35 C 32 36.65625 30.65625 38 29 38 C 27.34375 38 26 36.65625 26 35 C 26 33.34375 27.34375 32 29 32 C 30.65625 32 32 33.34375 32 35 Z" fill="#f48fb1"/><path d="M 24 32 C 24 33.105469 23.105469 34 22 34 C 20.894531 34 20 33.105469 20 32 C 20 30.894531 20.894531 30 22 30 C 23.105469 30 24 30.894531 24 32 Z" fill="#f8bbd0"/><path d="M 27 23 C 27 24.105469 26.105469 25 25 25 C 23.894531 25 23 24.105469 23 23 C 23 21.894531 23.894531 21 25 21 C 26.105469 21 27 21.894531 27 23 Z" fill="#e3f2fd"/><path d="M 25 16.5 C 25 17.328125 24.328125 18 23.5 18 C 22.671875 18 22 17.328125 22 16.5 C 22 15.671875 22.671875 15 23.5 15 C 24.328125 15 25 15.671875 25 16.5 Z" fill="#e3f2fd"/></svg>
